X:1
T:Title
%%score [ 1 2 3 ]
L:1/8
Q:1/4=64
M:2/4
K:Bb
V:1 treble nm="Soprano"
V:2 treble-8 nm="Tenor"
V:3 bass nm="Bass"
V:1
"^Andante" d d/d/ c/B/ (c/d/) | (c/B/) B2 (c/d/) | ee (d/c/) (d/e/) | (d/c/) c2 (d/e/) | %4
w: Gra- zie\_a- gl'in- gan- * ni *|tuo- * i, al *|fin re- spi- * ro, o|Ni- * ce, al *|
 ff (e/d/) (e/f/) | (de) (fg) | (g/f/) e/d/ (c/B/) (c/d/) | B2 z2 | e e/e/ (d/c/) (d/e/) | %9
w: fin d'un in- * fe- *|li- * ce _|eb- * ber gli Dei * pie- *|ta.|Gra- zie\_a- gl'in- gan- * ni *|
 (d/c/) c2 (d/e/) | ff (e/d/) (e/f/) | (de) (fg) | f e/d/ (c/B/) (c/d/) | B z (c3/2d/4e/4) | %14
w: tuo- * i, al *|fin d'un in- * fe- *|li- * ce _|eb- ber gli Dei * pie- *|ta. Gra- * *|
 d z (A3/2B/4c/4) | B z z2 | _d d/d/ (c/e/) (d/c/) | (c/B/) (B2 _d/e/) | f f/f/ (e/_d/) (e/f/) | %19
w: zie, gra- * *|zie!|E non t'of- fen- * da il|ve- * ro, _ _|e non t'of- fen- * da il|
 (e/_d/) d2 f | (f/e/) z/ e/ (e/_d/) z/ d/ | _d c2 c | _dd (d/f/) (e/d/) | (_d/c/) c2 c | %24
w: ve- * ro, nel|tuo * leg- gia- * dro\_as-|pet- to or|sco- pro\_al- cun * di- *|fet- * to, che|
 _dd (d/f/) (e/d/) | (!fermata!c2 ^c2) | d d/d/ (c/B/) (c/d/) | (c/B/) B2 (c/d/) | %28
w: mi pa- rea * bel- *|ta. _|Gra- zie\_a- gl'in- gan- * ni *|tuo- * i, al *|
 ee (d/c/) (d/e/) | (d/c/) c2 (d/e/) | ff (e/d/) (e/f/) | (de) (fg) | (g/f/) e/d/ (c/B/) (c/d/) | %33
w: fin re- spi- * ro, o|Ni- * ce, al *|fin d'un in- * fe- *|li- * ce _|eb- * ber gli Dei * pie- *|
 B2 z2 | e e/e/ (d/c/) (d/e/) | (d/c/) c2 (d/e/) | ff (e/d/) (e/f/) | (de) (fg) | %38
w: ta.|Gra- zie\_a- gl'in- gan- * ni *|tuo- * i, al *|fin d'un in- * fe- *|li- * ce _|
 f e/d/ (c/B/) (c/d/) | B z (c3/2d/4e/4) | d z (A3/2B/4c/4) | B z z2 |] %42
w: eb- ber gli Dei * pie- *|ta. Gra- * *|zie, gra- * *|zie!|
V:2
 f f/f/ (e/d/) (e/f/) | (e/d/) d2 (c/B/) | cc (B/A/) (B/c/) | (B/A/) A2 (B/c/) | dd (c/B/) (c/d/) | %5
w: Gra- zie\_a- gl'in- gan- * ni *|tuo- * i, al *|fin re- spi- * ro, o|Ni- * ce, al *|fin d'un in- * fe- *|
 (Bc) (de) | (e/d/) c/B/ (A/G/) (A/F/) | B2 z2 | c c/c/ (B/A/) (B/c/) | (B/A/) A2 (B/c/) | %10
w: li- * ce _|eb- * ber gli Dei * pie- *|ta.|Gra- zie\_a- gl'in- gan- * ni *|tuo- * i, al *|
 dd (c/B/) (c/d/) | (Bc) (de) | d c/B/ (A/G/) (F/E/) | D z (A3/2B/4c/4) | B z (c3/2d/4e/4) | %15
w: fin d'un in- * fe- *|li- * ce _|eb- ber gli Dei * pie- *|ta. Gra- * *|zie, gra- * *|
 d z z2 | z4 | z4 | _d d/d/ (c/B/) (c/d/) | (c/B/) B2 _d | (_d/c/) z/ c/ (c/B/) z/ B/ | B A2 A | %22
w: zie!|||E non t'of- fen- * da il|ve- * ro, nel|tuo * leg- gia- * dro\_as-|pet- to or|
 BB (B/_d/) (c/B/) | (B/A/) A2 A | BB (B/_d/) (c/B/) | !fermata!A2 z2 | f f/f/ (e/d/) (e/f/) | %27
w: sco- pro\_al- cun * di- *|fet- * to, che|mi pa- rea * bel- *|ta.|Gra- zie\_a- gl'in- gan- * ni *|
 (e/d/) d2 (c/B/) | cc (B/A/) (B/c/) | (B/A/) A2 (B/c/) | dd (c/B/) (c/d/) | (Bc) (de) | %32
w: tuo- * i, al *|fin re- spi- * ro, o|Ni- * ce, al *|fin d'un in- * fe- *|li- * ce _|
 (e/d/) c/B/ (A/G/) (A/F/) | B2 z2 | c c/c/ (B/A/) (B/c/) | (B/A/) A2 (B/c/) | dd (c/B/) (c/d/) | %37
w: eb- * ber gli Dei * pie- *|ta.|Gra- zie\_a- gl'in- gan- * ni *|tuo- * i, al *|fin d'un in- * fe- *|
 (Bc) (de) | d c/B/ (A/G/) (F/E/) | D z (A3/2B/4c/4) | B z (c3/2d/4e/4) | d z z2 |] %42
w: li- * ce _|eb- ber gli Dei * pie- *|ta. Gra- * *|zie, gra- * *|zie!|
V:3
 B, B,/B,/ F,F, | B,, B,,2 B,, | F,F, F,F, | F, F,2 F, | B,B, B,B, | B,3 E, | F, F,/F,/ F,F, | %7
w: Gra- zie\_a- gl'in- gan- ni|tuo- i, al|fin re- spi- ro\_o|Ni- ce, al|fin d'un in- fe-|li- ce|eb- ber gli Dei pie-|
 B,,2 z2 | F, F,/F,/ F,F, | F, (F,>E,) (D,/C,/) | B,,B, B,B, | B,3 E, | F, F,/F,/ F,F, | %13
w: ta.|Gra- zie\_a- gl'in- gan- ni|tuo- i, _ al *|fin d'un in- fe-|li- ce|eb- ber gli Dei pie-|
 B,, z F,2 | B, z F,2 | B,, z z2 | z4 | z4 | z4 | z2 z B, | B,F, B,B,, | F,F, z2 | F,4 | F,2 F,2 | %24
w: ta. Gra-|zie, gra-|zie!||||Or|sco- pro\_al- cun di-|fet- to,|che|mi pa-|
 F,2 F,2 | !fermata!F,2 z2 | B, B,/B,/ F,F, | B,, B,,2 B,, | F,F, F,F, | F, F,2 F, | B,B, B,B, | %31
w: rea bel-|ta.|Gra- zie\_a- gl'in- gan- ni|tuo- i, al|fin re- spi- ro\_o|Ni- ce, al|fin d'un in- fe-|
 B,3 E, | F, F,/F,/ F,F, | B,,2 z2 | F, F,/F,/ F,F, | F, (F,>E,) (D,/C,/) | B,,B, B,B, | B,3 E, | %38
w: li- ce|eb- ber gli Dei pie-|ta.|Gra- zie\_a- gl'in- gan- ni|tuo- i, _ al *|fin d'un in- fe-|li- ce|
 F, F,/F,/ F,F, | B,, z F,2 | B, z F,2 | B,, z z2 |] %42
w: eb- ber gli Dei pie-|ta. Gra-|zie, gra-|zie!|

